X: 3340
M: C
L: 1/8
K: D
uA>uG |\
|: f>g |\
a2f>d A>df>a | b2g>d B>dg>b |\
a2f>d A>df>d | e>dc>B A2f>g |\
a2f>d A>df>a | b2g>d B>ba>g |\
f>af>d e>ge>c | d2f2d2 :|
|: f>g |\
a>ga>b a>fd>f | g>fg>a g>ec>A |\
a>ga>b a>fd>f | e>dc>B A2f>g |\
a>ga>b a>fd>f | g>fg>a g>ec>e |\
f>af>d e>ge>c | d2f2d2 :|


